icons/svg/icons8/dog_track.svg

<svg width="26" height="26" viewBox="0 0 26 26" fill="none" xmlns="http://www.w3.org/2000/svg">
<g clip-path="url(#clip0)">
<path d="M14.4891 7.19499C14.4891 6.47099 14.5351 3.39699 16.1771 3.39699C18.2631 3.39699 19.6401 5.90899 19.6401 7.50699C19.6401 8.72999 18.8771 10.784 16.9091 10.784C14.9411 10.785 14.4891 7.91799 14.4891 7.19499ZM20.3071 11.256C19.3741 11.256 18.5961 11.809 17.9791 12.667C17.3911 13.482 16.7411 14.287 16.7411 14.798C16.7411 15.598 17.2801 15.751 17.7761 16.433C18.3421 17.212 18.9471 18.12 19.9971 18.12C21.9661 18.12 22.2881 16.545 22.6161 15.367C23.1471 13.457 22.3931 11.256 20.3071 11.256ZM8.89507 15.246C9.49507 14.685 9.85407 14.399 9.85407 13.526C9.85407 12.968 9.08107 12.019 8.49507 11.129C7.87707 10.189 7.23807 9.37699 6.30607 9.37699C4.21907 9.37699 3.41907 11.785 3.90007 13.886C4.24207 15.382 5.41807 16.879 7.01707 16.879C8.06507 16.879 8.14607 15.944 8.89507 15.246ZM10.6221 9.98499C12.5921 9.98499 12.9101 7.11199 12.9101 6.41999C12.9101 5.72799 12.9101 2.90799 11.0481 2.90799C9.13307 2.90799 7.96207 5.35499 7.96207 6.52699C7.96207 7.69699 8.65307 9.98499 10.6221 9.98499ZM12.8911 15.071C11.5301 15.071 11.1051 15.241 10.3331 17.425C9.37307 20.142 6.15807 20.001 6.15807 22.56C6.15807 24.039 7.65507 25.879 9.37307 25.879C10.8531 25.879 11.6521 25.301 12.7711 25.301C13.8901 25.301 14.3711 25.836 15.8881 25.836C18.2061 25.836 18.8951 24.005 18.8951 22.807C18.8951 20.968 15.8881 19.823 15.4091 17.583C15.1211 16.235 14.5701 15.071 12.8911 15.071ZM21.7051 10.604C22.0491 10.905 22.5181 11.383 22.5181 10.675C22.5181 9.92699 21.9401 8.77599 21.6901 8.77599C21.4651 8.77599 21.1511 9.29999 20.9111 10.11C20.7561 10.627 21.4531 10.385 21.7051 10.604ZM15.5721 1.83799C16.0071 1.97899 16.6261 2.23599 16.3461 1.58599C16.0531 0.896994 15.0701 0.0639944 14.8401 0.161994C14.6341 0.250994 14.5501 0.856994 14.6471 1.69399C14.7091 2.23199 15.2561 1.73599 15.5721 1.83799ZM5.95307 8.30499C6.25207 8.16099 6.85707 8.57799 6.84707 8.03699C6.83007 7.19199 6.66607 6.60499 6.44907 6.54499C6.21107 6.47999 5.35207 7.43899 5.15407 8.15999C4.96807 8.84399 5.54307 8.50399 5.95307 8.30499ZM11.8981 1.79399C12.2161 1.70499 12.7421 2.22099 12.8251 1.68799C12.9551 0.851994 12.8961 0.246994 12.6931 0.147994C12.4681 0.0439944 11.4571 0.838994 11.1361 1.51399C10.8341 2.15299 11.4601 1.91999 11.8981 1.79399Z" fill="#333333"/>
</g>
<defs>
<clipPath id="clip0">
<rect width="26" height="26" fill="white"/>
</clipPath>
</defs>
</svg>

<?xml version="1.0" encoding="utf-8"?>
<!-- Generator: Adobe Illustrator 15.0.0, SVG Export Plug-In . SVG Version: 6.00 Build 0)  -->
<!DOCTYPE svg PUBLIC "-//W3C//DTD SVG 1.1//EN" "http://www.w3.org/Graphics/SVG/1.1/DTD/svg11.dtd">
<svg version="1.1" id="Layer_1" xmlns="http://www.w3.org/2000/svg" xmlns:xlink="http://www.w3.org/1999/xlink" x="0px" y="0px"
	 width="26px" height="26px" viewBox="0 0 26 26" enable-background="new 0 0 26 26" xml:space="preserve">
<rect x="902" y="1469" fill="#333333" width="26" height="2"/>
<rect x="902" y="1489" fill="#333333" width="26" height="2"/>
<rect x="906" y="1474" fill="#333333" width="18" height="2"/>
<rect x="902" y="1479" fill="#333333" width="26" height="2"/>
<rect x="906" y="1484" fill="#333333" width="18" height="2"/>
<rect x="902" y="1467" fill="none" width="26" height="26"/>
<rect fill="none" width="26" height="26"/>
<path fill="#333333" d="M14.489,7.195c0-0.724,0.046-3.798,1.688-3.798c2.086,0,3.463,2.512,3.463,4.11
	c0,1.223-0.763,3.277-2.731,3.277C14.941,10.785,14.489,7.918,14.489,7.195z M20.307,11.256c-0.933,0-1.711,0.553-2.328,1.411
	c-0.588,0.815-1.238,1.62-1.238,2.131c0,0.8,0.539,0.953,1.035,1.635c0.566,0.779,1.171,1.687,2.221,1.687
	c1.969,0,2.291-1.575,2.619-2.753C23.147,13.457,22.393,11.256,20.307,11.256z M8.895,15.246c0.6-0.561,0.959-0.847,0.959-1.72
	c0-0.558-0.773-1.507-1.359-2.397c-0.618-0.94-1.257-1.752-2.189-1.752c-2.087,0-2.887,2.408-2.406,4.509
	c0.342,1.496,1.518,2.993,3.117,2.993C8.065,16.879,8.146,15.944,8.895,15.246z M10.622,9.985c1.97,0,2.288-2.873,2.288-3.565
	s0-3.512-1.862-3.512c-1.915,0-3.086,2.447-3.086,3.619C7.962,7.697,8.653,9.985,10.622,9.985z M12.891,15.071
	c-1.361,0-1.786,0.17-2.558,2.354c-0.96,2.717-4.175,2.576-4.175,5.135c0,1.479,1.497,3.319,3.215,3.319
	c1.48,0,2.279-0.578,3.398-0.578s1.6,0.535,3.117,0.535c2.318,0,3.007-1.831,3.007-3.029c0-1.839-3.007-2.984-3.486-5.224
	C15.121,16.235,14.57,15.071,12.891,15.071z M21.705,10.604c0.344,0.301,0.813,0.779,0.813,0.071c0-0.748-0.578-1.899-0.828-1.899
	c-0.225,0-0.539,0.524-0.779,1.334C20.756,10.627,21.453,10.385,21.705,10.604z M15.572,1.838c0.435,0.141,1.054,0.398,0.774-0.252
	c-0.293-0.689-1.276-1.522-1.506-1.424c-0.206,0.089-0.29,0.695-0.193,1.532C14.709,2.232,15.256,1.736,15.572,1.838z M5.953,8.305
	c0.299-0.144,0.904,0.273,0.894-0.268C6.83,7.192,6.666,6.605,6.449,6.545C6.211,6.48,5.352,7.439,5.154,8.16
	C4.968,8.844,5.543,8.504,5.953,8.305z M11.898,1.794c0.318-0.089,0.844,0.427,0.927-0.106c0.13-0.836,0.071-1.441-0.132-1.54
	c-0.225-0.104-1.236,0.691-1.557,1.366C10.834,2.153,11.46,1.92,11.898,1.794z"/>
</svg>
